!!!OTL: 658a. Minchen im Rosengarten.
!!!ODT: 1854
!!!ARE: Europa, Mitteleuropa, Deutschland, Gransee, Roennebeck
!!!SCT: E0658
!!!TXL: @@DE
!!!YEM: Copyright 1995, estate of Helmut Schaffrath.
**kern	**text
*ICvox	*
*M2/4	*
*k[f#]	*
*G:	*
!LO:TX:a:t=Heiter.	!
!LO:TX:a:t=Aus Rönnebeck bei Granſee 1854.	!
{8d	Er-
=1	=1
8.g	-laub'n
16g	Sie
8g	mir,
8a	o
=2	=2
4b	Schön-
8b}	-ſter
{8b	in
=3	=3
8aL	Gar-
8ddJ	.
8cc	-ten
8a	ʒu
=4	=4
4g	gehn,
8r}	.
{8g	da
=5	=5
8.b	ſeh
16a	ich
8b	ei-
8b	-ne
=6	=6
4dd	Blu-
8dd}	-me
{8dd	von
=7	=7
8ccL	Fer-
8eeJ	.
8ddL	-ne
8ccJ	.
=8	=8
4b	ſtehn.
8r}	.
{16gL	Er-
16bJ	.
=9	=9
8dd	-laub'n
8dd	Sie
8dd	mir
16eeL	ʒu
16ddJ	.
=10	=10
4cc	bre-
8cc}	-chen?
{8cc	jetʒt
=11	=11
8b	iſt
8g	die
8dd	höch-
8b	-ſte
=12	=12
4a	Ʒeit,
8r}	.
{8d	die
=13	=13
(8.g	Schön-
16a/)	.
8b	-heit
8cc	der
=14	=14
4dd	Blu-
8ee}	-men
{16ddL	mein
16ccJ	.
=15	=15
4b	Herʒ
4a	er-
=16	=16
4g	-freut.
8r}	.
==	==
!!!AGN: Liebes - Lied
!!!ONB: ESAC (Essen Associative Code) Database: ERK2
!!!AMT: simple duple
!!!AIN: vox
!!!EED: Helmut Schaffrath
!!!EEV: 1.0
!!!GTL: Liebeslieder [Neuere (aus dem 18. bis 19. Jahrh.) - Liebeslust]
!!!URL-scan: https://rosdok.uni-rostock.de/mcrviewer/recordIdentifier/rosdok_ppn745177662/iview2/phys_0465.iview2?x=123.76523707624142&y=1509.1424309234135&scale=0.7029437510502773&rotation=0&layout=singlePageLayout
!!!ENC: Anna Maria Matuszewska
!!!EEV: 2024/12/12
*-	*-
